img/image/design/icon-map.svg

<svg xmlns="http://www.w3.org/2000/svg" fill="none" viewBox="3.81 2.56 17.5 20.5">
<path d="M19.8135 11.2253C19.8135 13.6715 18.3522 16.2705 16.5949 18.3132C15.7274 19.3216 14.8172 20.1596 14.0402 20.7388C13.651 21.0289 13.3074 21.2451 13.0293 21.3851C12.8905 21.455 12.7774 21.5012 12.6902 21.5289C12.5988 21.5578 12.5604 21.5586 12.5635 21.5586V23.0586C12.9447 23.0586 13.3495 22.9033 13.7039 22.7248C14.082 22.5344 14.5009 22.2663 14.9367 21.9414C15.8098 21.2906 16.7995 20.3755 17.732 19.2915C19.5748 17.1495 21.3135 14.2068 21.3135 11.2253H19.8135ZM12.5635 21.5586C12.5666 21.5586 12.5281 21.5578 12.4367 21.5289C12.3496 21.5012 12.2365 21.455 12.0977 21.3851C11.8195 21.2451 11.4759 21.0289 11.0867 20.7388C10.3098 20.1596 9.39952 19.3216 8.53204 18.3132C6.77476 16.2705 5.31348 13.6715 5.31348 11.2253H3.81348C3.81348 14.2068 5.5522 17.1495 7.39491 19.2915C8.32743 20.3755 9.31719 21.2906 10.1902 21.9414C10.626 22.2663 11.0449 22.5344 11.423 22.7248C11.7775 22.9033 12.1822 23.0586 12.5635 23.0586V21.5586ZM5.31348 11.2253C5.31348 7.2746 8.55199 4.05859 12.5635 4.05859V2.55859C7.73841 2.55859 3.81348 6.43141 3.81348 11.2253H5.31348ZM12.5635 4.05859C16.575 4.05859 19.8135 7.2746 19.8135 11.2253H21.3135C21.3135 6.43141 17.3885 2.55859 12.5635 2.55859V4.05859Z" fill="#9C8364"/>
<circle r="3" transform="matrix(-1 0 0 1 12.5635 10.8086)" stroke="#9C8364" stroke-width="1.5"/>
</svg>

<svg xmlns="http://www.w3.org/2000/svg" fill="none" viewBox="3.81 2.56 17.5 20.5"><path d="M19.814 11.225c0 2.447-1.462 5.045-3.22 7.088-.867 1.009-1.777 1.847-2.554 2.426a7.13 7.13 0 0 1-1.01.646 2.38 2.38 0 0 1-.34.144c-.091.029-.13.03-.127.03v1.5c.382 0 .787-.156 1.14-.334.379-.19.798-.459 1.234-.784.873-.65 1.862-1.566 2.795-2.65 1.843-2.142 3.582-5.084 3.582-8.066h-1.5Zm-7.25 10.334c.003 0-.036-.001-.127-.03a2.385 2.385 0 0 1-.34-.144 7.125 7.125 0 0 1-1.01-.646c-.777-.58-1.687-1.417-2.555-2.426-1.757-2.043-3.219-4.641-3.219-7.088h-1.5c0 2.982 1.74 5.925 3.582 8.066.932 1.084 1.922 2 2.795 2.65.436.325.855.593 1.233.784.354.178.76.334 1.14.334v-1.5Zm-7.25-10.334c0-3.95 3.238-7.166 7.25-7.166v-1.5c-4.826 0-8.75 3.872-8.75 8.666h1.5Zm7.25-7.166c4.011 0 7.25 3.216 7.25 7.166h1.5c0-4.794-3.925-8.666-8.75-8.666v1.5Z" fill="#9C8364"/><circle r="3" transform="matrix(-1 0 0 1 12.563 10.809)" stroke="#9C8364" stroke-width="1.5"/></svg>
